brandFactory_export/2.Regular/Comprar planes_2Regular.svg

<?xml version="1.0" encoding="UTF-8"?>
<svg width="24px" height="24px" viewBox="0 0 24 24" version="1.1" xmlns="http://www.w3.org/2000/svg" xmlns:xlink="http://www.w3.org/1999/xlink">
    <title>2.Regular/Comprar planes_2Regular</title>
    <g id="Symbols" stroke="none" stroke-width="1" fill="none" fill-rule="evenodd">
        <g id="2.Regular/Comprar-planes_2Regular" fill="#5CB615" fill-rule="nonzero">
            <path d="M10.1714286,19.6470588 C10.7697479,19.6470588 11.2537815,19.8184874 11.6033613,20.1546218 C11.9697479,20.507563 12.1546218,21.0016807 12.1546218,21.6302521 C12.1546218,22.2588235 11.9697479,22.7529412 11.6033613,23.1058824 C11.2571429,23.4420168 10.7731092,23.6134454 10.1714286,23.6134454 C9.5697479,23.6134454 9.08907563,23.4420168 8.7394958,23.1058824 C8.37310924,22.7529412 8.18823529,22.2588235 8.18823529,21.6302521 C8.18823529,21.0016807 8.37310924,20.507563 8.7394958,20.1546218 C9.08907563,19.8184874 9.57310924,19.6470588 10.1714286,19.6470588 Z M16.7260504,19.6470588 C17.3243697,19.6470588 17.8084034,19.8184874 18.1579832,20.1546218 C18.5210084,20.507563 18.7092437,21.0016807 18.7092437,21.6302521 C18.7092437,22.2588235 18.5243697,22.7529412 18.1579832,23.1058824 C17.8117647,23.4420168 17.3277311,23.6134454 16.7260504,23.6134454 C16.1243697,23.6134454 15.6436975,23.4420168 15.2941176,23.1058824 C14.9277311,22.7529412 14.7428571,22.2588235 14.7428571,21.6302521 C14.7428571,21.0016807 14.9277311,20.507563 15.2941176,20.1546218 C15.6436975,19.8184874 16.1277311,19.6470588 16.7260504,19.6470588 Z M10.1714286,20.9915966 C9.68067227,20.9915966 9.53277311,21.1394958 9.53277311,21.6302521 C9.53277311,22.1210084 9.68067227,22.2689076 10.1714286,22.2689076 C10.6621849,22.2689076 10.810084,22.1210084 10.810084,21.6302521 C10.810084,21.1394958 10.6621849,20.9915966 10.1714286,20.9915966 Z M16.7260504,20.9915966 C16.2352941,20.9915966 16.087395,21.1394958 16.087395,21.6302521 C16.087395,22.1210084 16.2352941,22.2689076 16.7260504,22.2689076 C17.2168067,22.2689076 17.3647059,22.1210084 17.3647059,21.6302521 C17.3647059,21.1394958 17.2168067,20.9915966 16.7260504,20.9915966 Z M2.30588235,-2.87769808e-13 C3.94621849,-2.87769808e-13 5.32773109,1.05882353 5.58991597,2.5210084 C5.658897,2.90730221 5.86458161,4.09136859 6.11885111,5.56321929 L8.85378151,5.56302521 C8.90614772,5.56302521 8.95716548,5.56909322 9.00616638,5.58056083 L9.00504202,0.964705882 C9.00504202,0.393277311 9.37478992,0.0235294118 9.94957983,0.0235294118 L14.7495798,0.0235294118 C14.8840336,0.0235294118 15.0117647,0.0773109244 15.1058824,0.171428571 L18.7193277,3.78487395 C18.8021513,3.86769748 18.8537385,3.97655126 18.8649268,4.09311 C18.8650001,4.10075853 18.8655537,4.10778024 18.8659607,4.11480802 C18.8669818,4.12305584 18.8672269,4.13210084 18.8672269,4.14117647 L18.8668067,5.563 L22.9344538,5.56302521 C23.3042017,5.56302521 23.6067227,5.86554622 23.6067227,6.23529412 C23.6067227,6.29243697 23.6,6.34621849 23.5865546,6.4 L23.3520075,7.33594771 C23.1660131,8.08067227 22.9277311,9.03753501 22.6789916,10.0302521 C22.2285714,11.8453782 21.7613445,13.7210084 21.6201681,14.2689076 C21.3008403,15.4991597 20.8403361,16.4067227 20.2016807,17.0420168 C19.5327731,17.7109244 18.6890756,18.0504202 17.6941176,18.0504202 L10.1714286,18.0504202 C9.16638655,18.0504202 8.27563025,17.7109244 7.59327731,17.0722689 C6.88403361,16.4033613 6.42352941,15.4386555 6.22857143,14.205042 C6.07058824,13.1831933 4.48403361,3.97647059 4.26890756,2.75630252 C4.12436975,1.94957983 3.28403361,1.34453782 2.3092437,1.34453782 L0.68907563,1.34453782 C0.319327731,1.34453782 0.0168067227,1.04201681 0.0168067227,0.672268908 C0.0168067227,0.302521008 0.319327731,-2.87769808e-13 0.68907563,-2.87769808e-13 L2.30588235,-2.87769808e-13 Z M8.85378151,6.90756303 L6.35075121,6.90724616 C6.866963,9.90252124 7.46406733,13.3892024 7.55966387,13.9966387 C7.70756303,14.9277311 8.02689076,15.6302521 8.51764706,16.0941176 C8.94789916,16.5008403 9.50588235,16.7058824 10.1714286,16.7058824 L17.6907563,16.7058824 C18.5109244,16.7058824 19.6739496,16.4201681 20.3159664,13.9327731 C20.4571429,13.3915966 20.9210084,11.5193277 21.3747899,9.70756303 C21.6336134,8.66554622 21.8823529,7.66722689 22.0739496,6.90756303 L18.8668067,6.907 L18.8672269,13.0117647 C18.8672269,13.5731092 18.5042017,13.9394958 17.9394958,13.9394958 L17.3378151,13.9428571 L9.95294118,13.9428571 C9.36806723,13.9428571 9.00504202,13.5798319 9.00504202,12.9915966 L9.00616638,6.89002741 C8.95716548,6.90149501 8.90614772,6.90756303 8.85378151,6.90756303 Z M14.2478067,1.035 L10.0235294,1.03529412 L10.0235294,12.9344538 L17.8621849,12.9344538 L17.8618067,4.648 L16.0605042,4.6487395 C15.2672269,4.64537815 14.8436975,4.28235294 14.6285714,3.97983193 C14.3764706,3.62016807 14.2521008,3.13613445 14.2487395,2.49747899 L14.2478067,1.035 Z M16.4168067,10.3193277 C16.6957983,10.3193277 16.9210084,10.5445378 16.9210084,10.8235294 C16.9210084,11.102521 16.692437,11.3277311 16.4168067,11.3277311 L11.1731092,11.3277311 C10.8941176,11.3277311 10.6689076,11.102521 10.6689076,10.8235294 C10.6689076,10.5445378 10.8941176,10.3193277 11.1731092,10.3193277 L16.4168067,10.3193277 Z M16.4168067,8.02689076 C16.6957983,8.02689076 16.9210084,8.25210084 16.9210084,8.53109244 C16.9210084,8.81008403 16.692437,9.03529412 16.4168067,9.03529412 L11.1731092,9.03529412 C10.8941176,9.03529412 10.6689076,8.81008403 10.6689076,8.53109244 C10.6689076,8.25210084 10.8941176,8.02689076 11.1731092,8.02689076 L16.4168067,8.02689076 Z M16.4168067,5.73109244 C16.6957983,5.73109244 16.9210084,5.95630252 16.9210084,6.23529412 C16.9210084,6.51428571 16.692437,6.7394958 16.4168067,6.7394958 L11.1731092,6.7394958 C10.8941176,6.7394958 10.6689076,6.51428571 10.6689076,6.23529412 C10.6689076,5.95630252 10.8941176,5.73109244 11.1731092,5.73109244 L16.4168067,5.73109244 Z M15.2571429,1.74789916 L15.2571429,2.49411765 C15.2605042,3.54957983 15.6403361,3.64033613 16.0638655,3.64033613 L17.1462185,3.64033613 L15.2571429,1.74789916 Z" id="Comprar-planes_2Regular"></path>
        </g>
    </g>
</svg>

<svg width="24" height="24" viewBox="0 0 24 24" xmlns="http://www.w3.org/2000/svg"><path d="M10.171 19.647c.599 0 1.083.171 1.432.508.367.353.552.847.552 1.475 0 .629-.185 1.123-.552 1.476-.346.336-.83.507-1.432.507-.601 0-1.082-.171-1.432-.507-.366-.353-.55-.847-.55-1.476 0-.628.184-1.122.55-1.475.35-.337.834-.508 1.432-.508zm6.555 0c.598 0 1.082.171 1.432.508.363.353.551.847.551 1.475 0 .629-.185 1.123-.551 1.476-.346.336-.83.507-1.432.507s-1.082-.171-1.432-.507c-.366-.353-.551-.847-.551-1.476 0-.628.185-1.122.551-1.475.35-.337.834-.508 1.432-.508zm-6.555 1.345c-.49 0-.638.147-.638.638s.148.639.638.639c.491 0 .64-.148.64-.639 0-.49-.149-.638-.64-.638zm6.555 0c-.49 0-.639.147-.639.638s.148.639.64.639c.49 0 .638-.148.638-.639 0-.49-.148-.638-.639-.638zM2.306 0c1.64 0 3.022 1.059 3.284 2.521.069.386.275 1.57.529 3.042h2.735c.052 0 .103.006.152.018L9.005.965c0-.572.37-.941.945-.941h4.8c.134 0 .262.053.356.147l3.613 3.614a.504.504 0 01.146.308l.001.022a.22.22 0 01.001.026v1.422h4.067a.674.674 0 01.653.837l-.235.936c-.186.745-.424 1.702-.673 2.694-.45 1.815-.918 3.691-1.059 4.239-.32 1.23-.78 2.138-1.418 2.773-.67.669-1.513 1.008-2.508 1.008h-7.523c-1.005 0-1.895-.34-2.578-.978-.709-.669-1.17-1.633-1.364-2.867-.158-1.022-1.745-10.229-1.96-11.449-.145-.806-.985-1.411-1.96-1.411H.69A.674.674 0 01.017.672C.017.302.319 0 .689 0h1.617zm6.548 6.908H6.35c.516 2.995 1.113 6.481 1.209 7.089.148.93.467 1.633.958 2.097.43.407.988.612 1.653.612h7.52c.82 0 1.983-.286 2.625-2.773.141-.541.605-2.414 1.059-4.225.259-1.042.507-2.04.699-2.8l-3.207-.001v6.105c0 .561-.363.927-.928.927l-.601.004H9.953c-.585 0-.948-.363-.948-.951l.001-6.102a.668.668 0 01-.152.018zm5.394-5.873h-4.224v11.9h7.838V4.647H16.06c-.794-.003-1.217-.366-1.432-.668-.253-.36-.377-.844-.38-1.483l-.001-1.462zm2.169 9.284a.504.504 0 110 1.009h-5.244a.504.504 0 110-1.009h5.244zm0-2.292a.504.504 0 110 1.008h-5.244a.504.504 0 110-1.008h5.244zm0-2.296a.504.504 0 110 1.008h-5.244a.504.504 0 110-1.008h5.244zm-1.16-3.983v.746c.004 1.056.383 1.146.807 1.146h1.082l-1.889-1.892z" fill="#5CB615" fill-rule="nonzero"/></svg>
